wagtail_fa_svg/templates/wagtail-fa-svg/v6/solid/ethernet.svg

<svg id="icon-ethernet" viewbox="0 0 512 512" xmlns="http://www.w3.org/2000/svg"><!--! Font Awesome Free 6.6.0 by @fontawesome - https://fontawesome.com License - https://fontawesome.com/license/free (Icons: CC BY 4.0, Fonts: SIL OFL 1.1, Code: MIT License) Copyright 2024 Fonticons, Inc. --><path d="M0 224L0 416c0 17.7 14.3 32 32 32l64 0 0-112c0-8.8 7.2-16 16-16s16 7.2 16 16l0 112 64 0 0-112c0-8.8 7.2-16 16-16s16 7.2 16 16l0 112 64 0 0-112c0-8.8 7.2-16 16-16s16 7.2 16 16l0 112 64 0 0-112c0-8.8 7.2-16 16-16s16 7.2 16 16l0 112 64 0c17.7 0 32-14.3 32-32l0-192c0-17.7-14.3-32-32-32l-32 0 0-32c0-17.7-14.3-32-32-32l-32 0 0-32c0-17.7-14.3-32-32-32L160 64c-17.7 0-32 14.3-32 32l0 32-32 0c-17.7 0-32 14.3-32 32l0 32-32 0c-17.7 0-32 14.3-32 32z"></path></svg>

<svg id="icon-ethernet" viewbox="0 0 512 512" xmlns="http://www.w3.org/2000/svg"><!--! Font Awesome Free 6.5.2 by @fontawesome - https://fontawesome.com License - https://fontawesome.com/license/free (Icons: CC BY 4.0, Fonts: SIL OFL 1.1, Code: MIT License) Copyright 2024 Fonticons, Inc. --><path d="M0 224V416c0 17.7 14.3 32 32 32H96V336c0-8.8 7.2-16 16-16s16 7.2 16 16V448h64V336c0-8.8 7.2-16 16-16s16 7.2 16 16V448h64V336c0-8.8 7.2-16 16-16s16 7.2 16 16V448h64V336c0-8.8 7.2-16 16-16s16 7.2 16 16V448h64c17.7 0 32-14.3 32-32V224c0-17.7-14.3-32-32-32H448V160c0-17.7-14.3-32-32-32H384V96c0-17.7-14.3-32-32-32H160c-17.7 0-32 14.3-32 32v32H96c-17.7 0-32 14.3-32 32v32H32c-17.7 0-32 14.3-32 32z"></path></svg>
